assets/svg/icon_button_receive.svg

<svg width="24" height="24" viewBox="0 0 24 24" fill="none" xmlns="http://www.w3.org/2000/svg">
<path d="M12.625 7.99805C12.625 7.65287 12.3452 7.37305 12 7.37305C11.6548 7.37305 11.375 7.65287 11.375 7.99805H12.625ZM12 15.998L11.5581 16.44C11.8021 16.6841 12.1979 16.6841 12.4419 16.44L12 15.998ZM14.8419 14.04C15.086 13.7959 15.086 13.4002 14.8419 13.1561C14.5979 12.912 14.2021 12.912 13.9581 13.1561L14.8419 14.04ZM10.0419 13.1561C9.79786 12.912 9.40214 12.912 9.15806 13.1561C8.91398 13.4002 8.91398 13.7959 9.15806 14.04L10.0419 13.1561ZM5.1712 18.8268L4.72896 19.2685L4.72941 19.2689L5.1712 18.8268ZM5.1712 5.17005L4.72941 4.72795L4.72926 4.72811L5.1712 5.17005ZM18.828 5.17005L18.3859 5.61184L18.3864 5.61229L18.828 5.17005ZM18.828 18.8268L18.3861 18.3849L18.3859 18.3851L18.828 18.8268ZM11.375 7.99805V15.998H12.625V7.99805H11.375ZM12.4419 16.44L14.8419 14.04L13.9581 13.1561L11.5581 15.5561L12.4419 16.44ZM12.4419 15.5561L10.0419 13.1561L9.15806 14.04L11.5581 16.44L12.4419 15.5561ZM12 19.373C10.0967 19.373 8.73214 19.3717 7.69415 19.2322C6.67413 19.0951 6.06353 18.835 5.61299 18.3848L4.72941 19.2689C5.45087 19.9899 6.36907 20.3154 7.52765 20.4711C8.66826 20.6244 10.1321 20.623 12 20.623V19.373ZM5.61344 18.3852C5.16304 17.9342 4.90291 17.3235 4.76583 16.3036C4.62633 15.2657 4.625 13.9013 4.625 11.998H3.375C3.375 13.866 3.37367 15.3296 3.52697 16.4701C3.68269 17.6286 4.00816 18.5467 4.72896 19.2685L5.61344 18.3852ZM4.625 11.998C4.625 10.0948 4.62633 8.73019 4.76583 7.69231C4.90292 6.67237 5.16305 6.06208 5.61314 5.61199L4.72926 4.72811C4.00815 5.44921 3.68268 6.36732 3.52697 7.52579C3.37367 8.6663 3.375 10.1301 3.375 11.998H4.625ZM5.61299 5.61214C6.06402 5.16142 6.67473 4.90113 7.69451 4.76397C8.73237 4.62438 10.0967 4.62305 12 4.62305V3.37305C10.1321 3.37305 8.66843 3.37172 7.52789 3.52512C6.36927 3.68096 5.45118 4.00668 4.72941 4.72795L5.61299 5.61214ZM12 4.62305C13.9033 4.62305 15.2678 4.62438 16.3057 4.76397C17.3255 4.90114 17.9358 5.16142 18.3859 5.61184L19.2701 4.72826C18.549 4.00667 17.6309 3.68095 16.4723 3.52512C15.3318 3.37172 13.8679 3.37305 12 3.37305V4.62305ZM18.3864 5.61229C18.8366 6.06192 19.0969 6.67203 19.2341 7.69205C19.3737 8.73001 19.375 10.0948 19.375 11.998H20.625C20.625 10.1301 20.6263 8.66608 20.4729 7.52544C20.3171 6.36686 19.9914 5.44857 19.2696 4.7278L18.3864 5.61229ZM19.375 11.998C19.375 13.9013 19.3737 15.2659 19.2341 16.3038C19.0969 17.3238 18.8366 17.9344 18.3861 18.3849L19.2699 19.2688C19.9914 18.5473 20.3171 17.6291 20.4729 16.4705C20.6263 15.3298 20.625 13.866 20.625 11.998H19.375ZM18.3859 18.3851C17.9363 18.835 17.3261 19.0951 16.306 19.2322C15.2681 19.3717 13.9033 19.373 12 19.373V20.623C13.8679 20.623 15.3319 20.6244 16.4726 20.4711C17.6311 20.3154 18.5493 19.9899 19.2701 19.2686L18.3859 18.3851Z" fill="#494949"/>
</svg>

<svg xmlns="http://www.w3.org/2000/svg" width="24" height="24" fill="none"><path fill="#494949" d="M12.625 7.998a.625.625 0 1 0-1.25 0zm-.625 8-.442.442c.244.244.64.244.884 0zm2.842-1.958a.625.625 0 0 0-.884-.884zm-4.8-.884a.625.625 0 1 0-.884.884zm-4.87 5.67-.443.442zm0-13.656-.443-.442zm13.656 0-.442.442zm0 13.657-.442-.442zM11.375 7.998v8h1.25v-8zm1.067 8.442 2.4-2.4-.884-.884-2.4 2.4zm0-.884-2.4-2.4-.884.884 2.4 2.4zM12 19.373c-1.903 0-3.268-.001-4.306-.14-1.02-.138-1.63-.398-2.081-.848l-.884.884c.722.72 1.64 1.046 2.799 1.202 1.14.153 2.604.152 4.472.152zm-6.387-.988c-.45-.45-.71-1.062-.847-2.081-.14-1.038-.141-2.403-.141-4.306h-1.25c0 1.868-.001 3.332.152 4.472.156 1.159.481 2.077 1.202 2.799zm-.988-6.387c0-1.903.001-3.268.14-4.306.138-1.02.398-1.63.848-2.08l-.884-.884c-.72.721-1.046 1.64-1.202 2.798-.153 1.14-.152 2.604-.152 4.472zm.988-6.386c.451-.45 1.062-.71 2.082-.848 1.037-.14 2.402-.141 4.305-.141v-1.25c-1.868 0-3.332-.001-4.472.152-1.159.156-2.077.482-2.799 1.203zM12 4.623c1.903 0 3.268.001 4.306.141 1.02.137 1.63.397 2.08.848l.884-.884c-.721-.721-1.64-1.047-2.798-1.203-1.14-.153-2.604-.152-4.472-.152zm6.386.99c.45.449.71 1.059.848 2.079.14 1.038.141 2.403.141 4.306h1.25c0-1.868.001-3.332-.152-4.473-.156-1.158-.482-2.076-1.203-2.797zm.989 6.385c0 1.903-.001 3.268-.14 4.306-.138 1.02-.398 1.63-.849 2.08l.884.885c.721-.722 1.047-1.64 1.203-2.798.153-1.141.152-2.605.152-4.473zm-.99 6.387c-.449.45-1.059.71-2.079.847-1.038.14-2.403.141-4.306.141v1.25c1.868 0 3.332.001 4.473-.152 1.158-.156 2.076-.481 2.797-1.202z"/></svg>
